X: 10934
T: Drumlona
R: reel
M: 4/4
K: Dmajor
|:A2|d2 ed cAAF|GBAG FDDE|FGAB cABG|Adde fdec|
d2 ed cAAF|GBAG FDDE|FGAB cABG|Addc d2:|
|:A2|defg afdf|geag fA A2|defg afdf|geaf d2 fg|
abga fgef|dfed cAAG|Adde fded|cAGE D2:|

